X:503
T:Largo's Fairy Dance
M:4/4
L:1/8
C:Nathaniel Gow
K:D
de||:"D"f2 fd f2 fd|f2 fd "A"cdeg|"D"f2 fd "G"gfed|"A"cABc "D"defg:||
"A"a2 af "G"b2 ba|"Em"gfge "A"a2 ag|"D"f2 fd "G"gfed|"A"cABc "D"defg|
"A"abaf "G"b2 ba|"Em"gage "A"a2 ag|"D"f2 fd "G"gfed|"A"cABc "D"d4||

